storage/app/icons/phosphoricons/thin/figma-logo-thin.svg

<svg xmlns="http://www.w3.org/2000/svg" fill="currentColor" viewBox="0 0 256 256"><path d="M184.46 96A36 36 0 0 0 168 28H96a36 36 0 0 0-16.46 68 36 36 0 0 0 1.56 64.76A40 40 0 1 0 140 196v-45.41A36 36 0 1 0 184.46 96M196 64a28 28 0 0 1-28 28h-28V36h28a28 28 0 0 1 28 28m-56 36h5.41a36.4 36.4 0 0 0-5.41 5.41ZM68 64a28 28 0 0 1 28-28h36v56H96a28 28 0 0 1-28-28m64 132a32 32 0 1 1-32-32h32Zm0-40H96a28 28 0 0 1 0-56h36Zm36 0a28 28 0 1 1 28-28 28 28 0 0 1-28 28"/></svg>

<svg xmlns="http://www.w3.org/2000/svg" viewBox="0 0 256 256" fill="currentColor"><path d="M184.46,96A36,36,0,0,0,168,28H96A36,36,0,0,0,79.54,96a36,36,0,0,0,1.56,64.76A40,40,0,1,0,140,196V150.59A36,36,0,1,0,184.46,96ZM196,64a28,28,0,0,1-28,28H140V36h28A28,28,0,0,1,196,64Zm-56,36h5.41a36.41,36.41,0,0,0-5.41,5.41ZM68,64A28,28,0,0,1,96,36h36V92H96A28,28,0,0,1,68,64Zm64,132a32,32,0,1,1-32-32h32Zm0-40H96a28,28,0,0,1,0-56h36Zm36,0a28,28,0,1,1,28-28A28,28,0,0,1,168,156Z"/></svg>
